X:1
T:The Art of Fugue Contrapunctus II (A = 415 Hz)
T:BWV 1080
T:J. S. Bach
%%score { 1 | 2 } { 3 | 4 }
L:1/8
M:2/2
K:E
V:1 alto1 nm="Harp"
V:2 alto 
V:3 tenor nm="Harp"
V:4 bass 
V:1
 z8 | z8 | z8 | z8 | z8 | z8 | z8 | z8 | z8 | z8 | z8 | z8 | G4 c4 | B4 G4 | =G4 ^G2 ^A2 | %15
 B4- (3:2:2B2 c (3:2:2B2 ^A | G8- | G8 | C8- | C8- | %20
 (3:2:2C2 ^B, (3:2:2C2 E (3:2:2D2 C (3:2:2=G2 ^G | %21
 (3:2:2^A2 B (3:2:2c2 E- (6:4:3E2 D/C/ (3:2:2^B,2 C | ^B,2 z2 z4 | z8 | z8 | G4 c4 | B4 G4 | %27
 =G4 ^G2 ^A2 | B4- (3:2:2B2 c (3:2:2B2 ^A | B2 g2- (3:2:2g2 f (3:2:2e2 d- | %30
 (3:2:2d2 e (3:2:2d2 c (3:2:2c2 d (3:2:2c2 ^B | c4 z4 | z8 | (3:2:2z2 g (3:2:2=g2 ^g c2 f2- | %34
 (3:2:2f2 e (3:2:2d2 c d2 g2 | c2 d2 D2 E2 | D2 d2- (3:2:2d2 c (3:2:2B2 ^A | %37
 (3:2:2B2 c d2- (3:2:2d2 e (3:2:2d2 c | g2 z2 z4 | z8 | (3:2:2z2 d (3:2:2=d2 ^d G2 c2- | %41
 (3:2:2c2 B (3:2:2A2 G A4- | (3:2:2A2 G (3:2:2F2 E F4- | %43
 (3:2:2F2 E (3:2:2F2 G (3:2:2A2 B (3:2:2c2 d | e4 b4 | g4 e4 | d4 e2 f2 | %47
 g4- (3:2:2g2 a (3:2:2g2 f | ^e4 f2 g2- | (3:2:2g2 c (3:2:2f2 e (3:2:2=d2 c (3:2:2B2 A | G4 z4 | %51
 z8 | z8 | z8 | (3:2:2z2 f (3:2:2e2 =d (3:2:2c2 B (3:2:2A2 G | A4 =d4- | %56
 (3:2:2d2 c (3:2:2^B2 c F2 =B2- | B2 A2 G4- | (3:2:2G2 e (3:2:2f2 e (3:2:2d2 c (3:2:2^B2 c | %59
 (3:2:2^B2 g (3:2:2a2 g (3:2:2f2 e (3:2:2d2 e | (3:2:2f2 e (3:2:2d2 c- (3:2:2c2 d (3:2:2c2 ^B | %61
 c2 z4 A2- | (3:2:2A2 A (3:2:2G2 F (3:2:2E2 D (3:2:2C2 ^B, | (3:2:2C2 c (3:2:2d2 e f4- | %64
 f2 (3:2:2e2 d e2 g2 | c4 d2 ^e2 | f6 c2- | (3:2:2c2 d (3:2:2c2 B- (3:2:2B2 c (3:2:2B2 A- | %68
 (3:2:2A2 A (3:2:2G2 F (3:2:2E2 B (3:2:2A2 G | =G2- (3G z G ^G2- (3G z G | (3:2:2c2 d e2 d4- | %71
 (3:2:2d2 g (3:2:2=g2 ^g (3:2:2d2 ^e f2- | f2 e4 (3:2:2d2 c | ^B2 d2 G4- | G2 C4 F2- | %75
 (3:2:2F2 A (3:2:2G2 F- (3:2:2F2 G (3:2:2F2 E- | (3:2:2E2 F (3:2:2E2 D- (3:2:2D2 E (3:2:2D2 C- | %77
 (3:2:2C2 ^A, (3:2:2^B,2 D (3:2:2G,2 F (3:2:2E2 D | C4 G4 | E4 C4 | ^B,4 C2 D2 | %81
 E4- (3:2:2E2 F (3:2:2E2 D | C8- | !fermata!C8 |] %84
V:2
 z8 | z8 | z8 | z8 | z8 | z8 | z8 | z8 | C4 G4 | E4 C4 | ^B,4 C2 D2 | E4- (3:2:2E2 F (3:2:2E2 D | %12
 (3:2:2C2 D (3:2:2E2 F G4- | (3:2:2G2 F (3:2:2E2 D- (3:2:2D2 E (3:2:2D2 C- | %14
 (3:2:2C2 C (3:2:2D2 E D2 C2 | B,2 D2 E2 D2- | (3:2:2D2 ^B, (3:2:2C2 D E2 D2- | %17
 (3:2:2D2 D (3:2:2C2 ^B, C2 =B,2- | B,2 (3:2:2A,2 G, A,2 G,2- | %19
 (3:2:2G,2 ^E, (3:2:2F,2 G, A,2 G,2 | =G,2 z2 z4 | z4 ^A,4 | (3:2:2G,2 D (3:2:2E2 F G4 | E4 C4 | %24
 ^B,4 C2 D2 | E4- (3:2:2E2 G (3:2:2=G2 ^E | D4- (3:2:2D2 G, (3:2:2C2 B, | %27
 ^A,4 (3:2:2z2 D (3:2:2^E2 =G | G4- G2 =G2 | (3:2:2G2 F (3:2:2E2 D C2 F2 | E4 D4 | C4 z4 | %32
 (3:2:2z2 A (3:2:2G2 F (3:2:2E2 D (3:2:2C2 ^B, | C2 c2 ^A2 ^B2 | c2 z4 B2- | %35
 (3:2:2B2 A (3:2:2G2 F G4 | =G2 B2 ^E2 G2 | (3:2:2G2 A (3:2:2G2 F (3:2:2E2 G (3:2:2F2 E- | %38
 (3:2:2E2 D (3:2:2^E2 =G (3:2:2^G2 ^A (3:2:2B2 G | (3:2:2^A2 B (3:2:2A2 G (3:2:2A2 G (3:2:2=G2 ^G | %40
 D4 ^E2 =G2 | G2 B,2 C2 F2 | (3:2:2B,2 E (3:2:2D2 C- (3:2:2C2 D (3:2:2C2 ^B, | C6 F2 | %44
 B,4- (3:2:2B,2 A, (3:2:2G,2 F, | (3:2:2E,2 E (3:2:2F2 G (3:2:2A2 B (3:2:2c2 A | B2 F2 B4- | %47
 B4 c2 (3:2:2B2 A | G4 c4 | A4 F4 | ^E4 F2 G2 | A4- (3:2:2A2 B (3:2:2A2 G | F2 A2 G2 B2- | %53
 (3:2:2B2 E (3:2:2F2 G (3:2:2A2 B (3:2:2c2 A | B4 E4- | (3:2:2E2 =G (3:2:2F2 E F2 ^G2 | A4 z4 | %57
 (3:2:2z2 F (3:2:2^E2 F D2 =E2- | (3:2:2E2 C (3:2:2^B,2 C F4- | F2 E2 D2 G2- | G2 z2 z4 | %61
 (3:2:2z2 A (3:2:2G2 F (3:2:2F2 G (3:2:2F2 E | D2 G,2 A,4 | G,2 G2 ^A2 ^B2 | c2 z2 z4 | %65
 (3:2:2z2 F (3:2:2G2 A B4- | B2 (3:2:2A2 G A2 G2 | F4 E4 | D4 C2 E2- | %69
 (3:2:2E2 E D2- (3:2:2D2 D C2 | z2 (3:2:2z2 c (3:2:2B2 ^A (3:2:2G2 =G | G4 z2 d2- | %72
 (3:2:2d2 G (3:2:2c2 B (3:2:2A2 G (3:2:2F2 E | D4- (3:2:2D2 F (3:2:2E2 D | %74
 (3:2:2C2 B, (3:2:2A,2 G, A,4 | G,6 ^A,2 | ^B,4 =G,4 | G,4 z2 ^B,2 | %78
 (3:2:2C2 E (3:2:2D2 C (3:2:2^B,2 G, (3:2:2^A,2 B, | C2 B,4 A,2- | %80
 (3:2:2A,2 A, (3:2:2G,2 F, E,2 A,2 | G,4 A,2 G,2- | (3:2:2G,2 ^E, (3:2:2F,2 G, A,4- | %83
 (3:2:2A,2 G, (3:2:2A,2 F, !fermata!G,4 |] %84
V:3
 z8 | z8 | z8 | z8 | G,4 C4 | B,4 G,4 | =G,4 ^G,2 ^A,2 | B,4- (3:2:2B,2 C (3:2:2B,2 A, | %8
 G,4- (3:2:2G,2 F (3:2:2E2 D | (3:2:2C2 B, (3:2:2A,2 G, (3:2:2A,2 G, (3:2:2F,2 E, | %10
 D,4 (3:2:2z2 G, (3:2:2^A,2 ^B, | C6 ^B,2 | C2- (3C z D E4 | D2 B,2- B,2 G,2 | %14
 ^A,4 (3:2:2z2 D, (3:2:2^E,2 =G, | G,6 =G,2 | G,2 (3:2:2^A,2 ^B, C2 F,2- | %17
 (3:2:2F,2 F, (3:2:2E,2 D, E,2 ^E,2- | (3:2:2E,2 C, (3:2:2D,2 ^E, F,2 B,,2- | %19
 (3:2:2B,,2 G,, (3:2:2A,,2 B,, (3:2:2C,2 ^B,, C,2 | D,2 z2 z4 | z4 =G,4 | %22
 D,2 z2 (3:2:2z2 G, (3:2:2^A,2 ^B, | C2 B,2- B,2 A,2- | (3:2:2A,2 F, (3:2:2E,2 D, G,4- | %25
 (3:2:2G,2 C (3:2:2^B,2 C =G,2 ^A,2- | (3:2:2A,2 D, (3:2:2G,2 F, E,4- | E,2 D,2 z4 | %28
 (3:2:2z2 F (3:2:2E2 D =D2 ^D2 | G,4 ^A,2 ^B,2 | C4 z4 | %31
 (3:2:2z2 G, (3:2:2^A,2 ^B, (3:2:2C2 D (3:2:2E2 C | D2 D,2 E,2 F,2 | G,2 z2 z4 | %34
 z2 C2- (3:2:2C2 B, (3:2:2A,2 G, | A,2 ^A,2 ^B,2 C2- | (3:2:2C2 B, (3:2:2^A,2 G, A,2 D2 | G,4 C4 | %38
 B,4 G,4 | =G,4 ^G,2 ^A,2 | B,4- (3:2:2B,2 C (3:2:2B,2 ^A, | G,4- (3:2:2G,2 F, (3:2:2E,2 D, | %42
 E,2 A,2 D,2 G,2 | C,2 (3:2:2D,2 E, (3:2:2F,2 G, A,2- | (3:2:2A,2 G, (3:2:2F,2 E, D,4 | %45
 E,2 z4 A,2- | (3:2:2A,2 C (3:2:2B,2 A, (3:2:2G,2 F, (3:2:2E,2 D, | %47
 (3:2:2E,2 E (3:2:2D2 E A,2 =D2- | (3:2:2D2 =D (3:2:2C2 B, (3:2:2A,2 G, (3:2:2F,2 ^E, | %49
 (3:2:2F,2 G, A,2- A,2 (3:2:2G,2 A, | B,2 =D2 C4- | C2 C2 D2 E2- | %52
 (3:2:2E2 E (3:2:2=D2 C (3:2:2B,2 A, (3:2:2G,2 F, | E,2 z2 z4 | z2 B,,2 C,2 =D,2 | E,2 A,4 =D2 | %56
 E4 (3:2:2z2 B, (3:2:2A,2 G, | F,2 =D2 ^B,2 C2- | C z z2 z4 | z2 C4 ^B,2 | C4 D4 | %61
 G,2 (3:2:2^A,2 ^B, C2 z2 | z2 D,2 E,2 F,2 | G,4 z4 | (3:2:2z2 G, (3:2:2^A,2 ^B, C2 ^E,2 | %65
 F,2 z2 z4 | z8 | z8 | z2 G,4 C2- | C2 B,4 G,2- | G,2 =G,2 ^G,2 ^A,2 | %71
 B,4- (3:2:2B,2 C (3:2:2^B,2 ^A, | G,4 A,4- | %73
 (3:2:2A,2 A, (3:2:2G,2 F, (3:2:2E,2 D, (3:2:2C,2 ^B,, | %74
 C,2 (3:2:2D,2 ^E, (3:2:2F,2 =E, (3:2:2D,2 C, | ^B,,4 C,4 | D,4 E,4 | D,4 z2 G,2 | G,4 z4 | %79
 (3:2:2z2 C, (3:2:2D,2 E, (3:2:2F,2 G, (3:2:2F,2 E, | (3:2:2D,2 F, (3:2:2E,2 D, C,4 | %81
 ^B,,2 C,4 B,,2 | C,2 (3:2:2D,2 ^E, F,4- | (3:2:2F,2 ^E, (3:2:2F,2 D, !fermata!E,4 |] %84
V:4
 C,4 G,4 | E,4 C,4 | ^B,,4 C,2 D,2 | E,4- (3:2:2E,2 F, (3:2:2E,2 D, | %4
 (3:2:2C,2 D, (3:2:2C,2 B,, (3:2:2B,,2 C, (3:2:2B,,2 ^A,,- | %5
 (3:2:2A,,2 G,, (3:2:2^A,,2 B,, (3:2:2C,2 D, (3:2:2E,2 C, | %6
 (3:2:2D,2 E, (3:2:2D,2 C, (3:2:2B,,2 ^A,, (3:2:2G,,2 =G,, | %7
 (3:2:2G,,2 G, (3:2:2=G,2 ^G, C,2 F,2- | (3:2:2F,2 E, (3:2:2D,2 C, ^B,,4 | %9
 C,2 C,,2 (3:2:2F,,2 G,, A,,2- | (3:2:2A,,2 A,, (3:2:2G,,2 F,, E,,2 D,,2 | %11
 (3:2:2C,,2 C, (3:2:2D,2 E, (3:2:2F,2 A, (3:2:2G,2 F, | %12
 (3:2:2E,2 F, (3:2:2E,2 D, (3:2:2C,2 D, (3:2:2E,2 F, | G,4 E,4- | %14
 (3:2:2E,2 E, (3:2:2D,2 C, B,,2 ^A,,2 | (3:2:2z2 G,, (3:2:2^A,,2 B,, C,2 D,2 | %16
 E,4- (3:2:2E,2 D, (3:2:2C,2 ^B,, | C,4- (3:2:2C,2 B,, (3:2:2A,,2 G,, | %18
 A,,4- (3:2:2A,,2 G,, (3:2:2F,,2 ^E,, | E,,4- (3:2:2E,,4 E,,2 | D,,8- | D,,4 D,4 | G,,2 z2 z4 | %23
 (3:2:2z2 C, (3:2:2D,2 E, (3:2:2F,2 G, (3:2:2F,2 E, | %24
 (3:2:2D,2 A, (3:2:2G,2 F, (3:2:2E,2 D, (3:2:2C,2 ^B,, | C,2 E,2 ^A,,2 D,2 | G,,4 C,4- | %27
 (3:2:2C,2 ^A,, (3:2:2D,2 C, B,,2 A,,2 | G,,2 z2 z4 | z8 | C,4 G,4 | E,4 C,4 | ^B,,4 C,2 D,2 | %33
 E,4- (3:2:2E,2 F, (3:2:2E,2 D, | C,2 z2 z4 | z2 F,2- (3:2:2F,2 E, (3:2:2D,2 C, | D,4 z4 | z8 | %38
 z8 | z8 | z8 | z8 | z8 | z8 | z8 | z8 | z8 | z8 | z8 | z8 | %50
 (3:2:2z2 =D, (3:2:2C,2 B,, (3:2:2A,,2 G,, (3:2:2F,,2 ^E,, | (3:2:2F,,2 F, (3:2:2^E,2 F, B,,4- | %52
 B,,4 E,4 | C,4 A,,4 | G,,4 A,,2 B,,2 | C,4- (3:2:2C,2 =D, (3:2:2C,2 B,, | %56
 (3:2:2A,,2 A, (3:2:2G,2 A, D,2 ^E,2 | F,4- (3:2:2F,2 E, (3:2:2D,2 C, | A,8 | G,2 z2 z4 | C,4 G,4 | %61
 E,4 C,4 | ^B,,4 C,2 D,2 | E,4- (3:2:2E,2 F, (3:2:2E,2 D, | C,4- (3:2:2C,2 =D, (3:2:2C,2 B,, | %65
 A,,4- (3:2:2A,,2 B,, (3:2:2A,,2 G,, | (3:2:2F,,2 C, (3:2:2D,2 ^E, (3:2:2F,2 G, (3:2:2F,2 =E, | %67
 D,2 G,2 C,2 F,2 | ^B,,4 C,4 | D,4 E,4 | ^A,,4 B,,4- | B,,2 C,2 D,4 | E,2 C,2 F,4- | %73
 F,2 ^B,,2 C,2 G,,2 | A,,4- A,,2 F,,2 | G,,8- | G,,8- | G,,4- (3:2:2G,,2 A,, (3:2:2G,,2 F,,- | %78
 (3:2:2F,,2 G,, (3:2:2F,,2 E,,- (3:2:2E,,2 F,, (3:2:2E,,2 D,, | %79
 C,,2 z2 (3:2:2z2 D,, (3:2:2E,,2 F,, | G,,4 (3:2:2z2 A,, (3:2:2G,,2 F,, | %81
 (3:2:2G,,2 E,, (3:2:2D,,2 C,, F,,2 G,,2 | %82
 (3:2:2A,,2 B,, (3:2:2A,,2 G,, (3:2:2F,,2 G,, (3:2:2A,,2 F,, | C,4 !fermata!C,,4 |] %84

